!!!id: BC104
!!!page: 130-131
!!!COM: Anonymous
!!!LYR: Anonymous
!!!PTL@@FR: Les 100 plus belles chansons
!!!OTL@@FR: Dans tous les cantons
!!!PUB: La Bonne Chanson, inc.
!!!YEM: On ne peut reproduire, enregistrer ou diffuser en tout ou en partie le présent ouvrage, sous quelque procédé que ce soit, électronique, mécanique, photographique, sonore, magnétique ou autre, sans avoir obtenu au préalable l'autorisation écrite de l'editrice.
!!!PDT: 2011
!!!SMA: 2012 Bibliothèque nationale du Québec; Biblothèque nationale du Canada
!!!AGN-Laforte: Strophic (without refrain), 5:10(5/6/7)
!!!AGN-theme: mariage
!!!AGN-rime: suivies
**kern	**text	**text	**text	**text	**text
*clefG2	*	*	*	*	*
*k[f#]	*	*	*	*	*
*G:	*	*	*	*	*
!!LO:TX:a:t=Allegretto
*M2/4	*v:1	*v:2	*v:3	*v:4	*v:5
*	*pline:1	*pline:1	*pline:1	*pline:1	*pline:1
=1	=1	=1	=1	=1	=1
8g	Dans	Jeun's	É-	Mais	L'au-
8a	tous	fill's,	-tant	si	-teur
=2	=2	=2	=2	=2	=2
4b	les	é-	ma-	les	d'la
4b	can-	-cou-	-ri-	ma-	chan-
=3	=3	=3	=3	=3	=3
4b	-tons,	-tez,	-é',	-ris	-son,
*	*pline:2	*pline:2	*pline:2	*pline:2	*pline:2
8cc	Y a	Qui	Il	Ne	C't'un
8b	des	vou-	faut	sont	viel-
=4	=4	=4	=4	=4	=4
8a	fill's	-lez	tout	pas	-lard
8g	et	vous	a-	tous	de
8a	des	ma-	-ban-	ga-	ce
8b	gar-	-ri-	-don-	-ran-	can-
!!LO:PB:g=original
=5	=5	=5	=5	=5	=5
*^	*	*	*	*	*
8a	4a	-çons	-er:	-ner,	-tis,	-ton
*	*	*pline:3	*pline:3	*pline:3	*pline:3	*pline:3
!	!	!missing notehead parentheses	!	!	!	!
8d	.	Qui	.	.	C'est	Qui
*v	*v	*	*	*	*	*
8g	veul'nt	Votr[e]	Tout	qu'il	n'a
8a	se	en-	les	y	pas
=6	=6	=6	=6	=6	=6
4b	ma-	-ga-	a-	en	re-
4b	-ri-	-ge-	-gré-	a	-gret-
=7	=7	=7	=7	=7	=7
4b	-er,	-ment	-ments	trop	-té
*	*pline:4	*pline:4	*pline:4	*pline:4	*pline:4
8cc	C'est	Vous	D'être	De	Le
8b	la	cau-	a-	ces	jour
=8	=8	=8	=8	=8	=8
8a	pu-	-se-	-vec	femm's	qu'il
8g	-re	-ra	les	qu'ont	s'est
8a	vé-	du	jeu-	des	ma-
8b	-ri-	tour-	-nes	dé-	-ri-
!!LO:PB:g=original
=9	=9	=9	=9	=9	=9
8g	-té.	-ment.	gens,	-fauts...	-é.
*	*pline:5	*pline:5	*pline:5	*pline:5	*pline:5
8d	Les	Vous	Faut	D'ces	Il
8g	gar-	pre-	res-	hu-	a
8b	-çons	-nez	-ter	-meurs	pris
=10	=10	=10	=10	=10	=10
4dd	vont	un	au	"ma-	un
4dd	les	é-	lo-	-ra-	"gi-
=11	=11	=11	=11	=11	=11
4dd	voir,	-tat	-gis	-bouts"	-bier"
8r	.	.	.	.	.
*	*pline:6	*pline:6	*pline:6	*pline:6	*pline:6
8dd	Le	De	Pour	Que	Qu'il
=12	=12	=12	=12	=12	=12
8ee	plus	pein's	plaire	rien	a
8dd	sou-	et	à	n'est	su
8cc	-vent	d'em-	son	à	con-
8b	le	-bar-	ma-	leur	-ser-
!!LO:PB:g=original
=13	=13	=13	=13	=13	=13
4cc	soir;	-ras;	-ri;	goût;	-ver;
8r	.	.	.	.	.
*	*pline:7	*pline:7	*pline:7	*pline:7	*pline:7
8cc	Les	Bien	Vous	Quand	Ell[e]
=14	=14	=14	=14	=14	=14
8dd	fill's	sou-	ê-	on	a
8b	sont	-vent	-tes	veut	des
8g	ré-	du	ma-	leur	qua-
8b	-jou-	cha-	-ri-	par-	-li-
=15	=15	=15	=15	=15	=15
4a	-ies	-grin,	-é'	-ler,	-tés
8r	.	.	.	.	.
*	*pline:8	*pline:8	*pline:8	*pline:8	*pline:8
8b	Quand	Sans	Par	Dans	Qu'il
=16	=16	=16	=16	=16	=16
8dd	ell's	en	votr'	l'coin	n'a
8b	voi'nt	con-	propr'	s'en	point
8g	leurs	-naîtr[e]	vo-	vont	pu-
8b	a-	la	-lon-	bou-	-bli-
!!LO:PB:g=original
=17	=17	=17	=17	=17	=17
8a	-mis;	fin,	-té;	-der.	-é's:
*	*pline:9	*pline:9	*pline:9	*pline:9	*pline:9
8d	Ell's	Qui	Vous	Com-	Que
8g	se	vous	a-	-ment	cha-
8a	dis'nt	f'ra	-vez	n'pas	-cun
=18	=18	=18	=18	=18	=18
4b	en	re-	pris	fair'	fass'
4b	sou-	-gret-	ma-	cour-	comm'
=19	=19	=19	=19	=19	=19
8b	-riant:	-ter	-ri,	-roux	moi,
*	*pline:10	*pline:10	*pline:10	*pline:10	*pline:10
8a	Le	La	C'est	A-	Qu'il
8g	voi-	mai-	pour	-vec	chan-
8cc	-là,	-son	lui	un	-te
=20	=20	=20	=20	=20	=20
4b	mon	qu'vous	ob-	tel	ce
4a	a-	quit-	-é-	hi-	qu'il
=21	=21	=21	=21	=21	=21
4g	-mant!	-tez.	-ir.	-bou!	sait.
==	==	==	==	==	==
*-	*-	*-	*-	*-	*-
!!!EED-1: Avery Yewon Hong
!!!EEV-1: 2026/02/23
!!!EED-2: Jack Etchegary
!!!EEV-2: 2026/02/03
!!!EED-3: Karissa Tang
!!!EEV-3: 2026/03/11
!!!EED-4: Ève Poudrier
!!!EEV-4: 2026/03/29
